src/maasserver/static/assets/images/icons/delete.svg

<?xml version="1.0" encoding="UTF-8" standalone="no"?>
<svg width="19px" height="24px" viewBox="0 0 19 24" version="1.1" xmlns="http://www.w3.org/2000/svg" xmlns:xlink="http://www.w3.org/1999/xlink">
    <!-- Generator: Sketch 40.3 (33839) - http://www.bohemiancoding.com/sketch -->
    <title>remove</title>
    <desc>Created with Sketch.</desc>
    <defs></defs>
    <g id="Page-1" stroke="none" stroke-width="1" fill="none" fill-rule="evenodd">
        <g id="remove" fill="#808080">
            <g id="Group">
                <path d="M0.99999,5.00001 L0.99999,17.60343 L0.99999,19.51769 L0.99999,20.89946 C0.99999,24.00004 2.06666,23.99998 4.73332,23.99998 L14.26666,23.99998 C16.93332,23.99998 17.99999,24.00001 17.99999,20.89946 L17.99999,19.51769 L17.99999,17.60343 L17.99999,5.00001 L17.19999,5.00001 L5.53332,5.00001 L3.93332,5.00001 L2.33332,5.00001 L0.99999,5.00001 Z M2.99999,6.60001 L4.99999,6.60001 L4.99999,18.00001 L5.99999,18.00001 L5.99999,6.60001 L8.99999,6.60001 L8.99999,18.00001 L9.99999,18.00001 L9.99999,6.60001 L13,6.60001 L13,18.00001 L14,18.00001 L14,6.60001 L16,6.60001 L16,19.81564 C16,22.00018 15.88413,22.00001 13.76874,22.00001 L5.23124,22.00001 C3.11585,22.00001 2.99999,22.00018 2.99999,19.81564 L2.99999,6.60001 Z" id="path1611"></path>
                <polygon id="rect1671" points="-1e-05 5.00001 18.99999 5.00001 18.99999 7.00001 -1e-05 7.00001"></polygon>
                <path d="M7.01415,0.54748 L7.01415,2.74017 L7.99999,2.39546 L7.9997,1.20122 C8.58957,1.07887 9.00401,0.99717 9.502,1.00001 C9.99999,1.00301 10.41908,1.08631 11.00027,1.20122 L10.99999,2.39546 L11.99999,2.74017 L11.99999,0.54748 C10.87247,0.0722 10.46135,9.99999992e-06 9.50702,9.99999992e-06 C8.55269,9.99999992e-06 8.08765,0.08671 7.01415,0.54748 L7.01415,0.54748 Z" id="path1687"></path>
                <path d="M9.49999,2.00001 C6.66671,2.00001 3.82779,2.51886 0.99999,3.48945 L0.99999,6.00001 L17.99999,6.00001 L17.99999,3.48945 C15.16648,2.53953 12.33328,2.00001 9.49999,2.00001 L9.49999,2.00001 Z" id="path1698"></path>
            </g>
        </g>
    </g>
</svg>

<svg width="19" height="24" viewBox="0 0 19 24" xmlns="http://www.w3.org/2000/svg"><title>remove</title><g fill="gray" fill-rule="evenodd"><path d="M1 5v15.898C1 24 2.067 24 4.733 24h9.534C16.933 24 18 24 18 20.9V5H1zm2 1.6h2V18h1V6.6h3V18h1V6.6h3V18h1V6.6h2v13.216C16 22 15.884 22 13.77 22H5.23C3.117 22 3 22 3 19.816V6.6z"/><path d="M0 5h19v2H0M7.014.547V2.74L8 2.395V1.2c.59-.12 1.004-.203 1.502-.2.498.003.917.086 1.498.2v1.195l1 .345V.547C10.872.072 10.46 0 9.507 0c-.954 0-1.42.087-2.493.547z"/><path d="M9.5 2C6.667 2 3.828 2.52 1 3.49V6h17V3.49C15.166 2.54 12.333 2 9.5 2z"/></g></svg>
